!!!OTL: WIE IST DOCH DIE ERDE SO SCHOEN
!!!ARE: Europa, Mitteleuropa, Deutschland
!!!SCT: B0515
!!!YEM: Copyright 1995, estate of Helmut Schaffrath.
**kern
*ICvox
*Ivox
*M6/8
*k[]
*C:
{8G
=1
8G
8E
8G
8e
8d
8c
=2
4B
8A
4c}
{8A
=3
8.G
16F
8E
8D
8E
8F
=4
2E
8r}
{8E
=5
8.E
16F
8E
4c
8B
=6
4.B
4A}
{8A
=7
8.G
16A
8G
4e
8d
=8
4.d
8c}
{8G
8G
=9
4A
8B
8.d
16c
8B
=10
4.A
8A}
{8c
8A
=11
8G
8c
8e
8d
8A
8B
=12
2c
8r}
==
!!!AGN: Wander - Lied
!!!ONB: ESAC (Essen Associative Code) Database: BOEHME
!!!AMT: compound duple
!!!AIN: vox
!!!EED: Helmut Schaffrath
!!!EEV: 1.0
*-
